!!!OTL: 1064. Raethsellied. / a) Frage.
!!!ARE: Europa, Mitteleuropa, Deutschland, Schwedt a.d. Oder
!!!SCT: E1064
!!!TXL: @@DE
!!!YEM: Copyright 1995, estate of Helmut Schaffrath.
**kern	**text
*ICvox	*
*M2/4	*
*k[f#]	*
*G:	*
!LO:TX:a:t=Mäßig bewegt.	!
!LO:TX:a:t=Aus Schwedt a. d. Oder.	!
{8d	Ach
=1	=1
8.g	Jung-
16g	-fer,
8g	ich
8g	will
=2	=2
4.g}	ihr
{8a	was
=3	=3
8.b	auf
16b	ʒu
8b	ra-
8b	-then
=4	=4
4b/	ge-
8a}	-ben,
{8g	und
=5	=5
8.b	wenn
16a	ſie
8b	es
8cc	er-
=6	=6
(4dd	-räth,
8gg)}	.
{8dd	hei-
=7	=7
8ddqq	.
4cc	-rath
4cc	ich
=8	=8
4b	ſie
4r}	.
=9	=9
{4dd	Was
8dd	für
8dd	ein
=10	=10
4.ee}	Haupt
{8dd	iſt
=11	=11
8.ccL	oh-
16b	.
8ccJ	.
8ee	-ne
=12	=12
4.dd}	Ʒopf,
{8cc	und
=13	=13
4b	was
8b	für
8dd	ein
=14	=14
8.ddL	Thurm
16cc	.
8bJ}	.
{8a	iſt
=15	=15
4b/	oh-
4a	-ne
=16	=16
4g	Knopf?
4r}	.
=17	=17
{4dd	Was
8dd	für
8dd	ein
=18	=18
4.ee}	Haupt
{8dd	iſt
=19	=19
8.ccL	oh-
16b	.
8ccJ	.
8ee	-ne
=20	=20
4.dd}	Ʒopf,
{8cc	und
=21	=21
4b	was
8b	für
8dd	ein
=22	=22
8.ddL	Thurm
16cc	.
8bJ}	.
{8a	iſt
=23	=23
4b/	oh-
4a	-ne
=24	=24
4g	Knopf?
8r}	.
==	==
!!!AGN: Raetsel - Lied
!!!ONB: ESAC (Essen Associative Code) Database: ERK3
!!!AMT: simple duple
!!!AIN: vox
!!!EED: Helmut Schaffrath
!!!EEV: 1.0
!!!GTL: Raethsel-, Wett- und Wunschlieder, nebst Luegenmaerchen.
!!!URL-scan: https://rosdok.uni-rostock.de/mcrviewer/recordIdentifier/rosdok_ppn745177999/iview2/phys_0011.iview2?x=0&y=502.479153702443&scale=0.6479838709677419&rotation=0&layout=singlePageLayout
!!!ENC: Anna Maria Matuszewska
!!!EEV: 2024/12/23
*-	*-
